src/static/logos/morpheus.svg

<?xml version="1.0" encoding="UTF-8"?>
<svg width="512px" height="106px" viewBox="0 0 512 106" version="1.1" xmlns="http://www.w3.org/2000/svg" xmlns:xlink="http://www.w3.org/1999/xlink" preserveAspectRatio="xMidYMid">
	<g>
		<path d="M159.240344,50.0718282 L159.240344,71.8961773 C159.240344,74.4912551 157.116905,75.9659109 154.99345,75.9659109 C153.105954,75.9659109 151.454393,74.4912312 151.454393,71.8961773 L151.454393,38.6877775 C151.454393,35.6208337 154.049702,34.618032 154.99345,34.618032 C156.704053,34.618032 157.706843,35.6208097 158.709632,36.7412277 L171.685971,54.2596529 L185.134651,36.0922248 C187.080957,33.6743078 191.858747,34.618032 191.858747,38.6877895 L191.858747,71.8961773 C191.858747,74.4912551 190.207174,75.9659109 188.31969,75.9659109 C186.196235,75.9659109 184.544673,74.4912312 184.544673,71.8961773 L184.544673,50.0718282 L174.753378,62.4586645 C172.629691,65.0537303 169.975576,65.0537303 168.029026,62.4586645 L159.240344,50.0718282 Z M225.24598,76.5558642 C214.333787,77.0277582 203.00879,69.7724827 203.00879,55.3215002 C203.00879,40.8109773 214.333787,33.6742879 225.24598,33.6742879 C235.568175,34.2047327 246.36226,41.3418889 246.36226,55.3215002 C246.362284,69.3006127 235.568175,76.5558642 225.24598,76.5558642 Z M224.596989,41.3418969 C217.990744,41.3418969 210.794766,46.0020946 210.794766,55.3214962 C210.794766,64.5818603 217.99074,69.3006087 224.596989,69.3006087 C231.380358,69.3006087 238.635398,64.5818603 238.635398,55.3214962 C238.635402,46.0020826 231.380358,41.3418969 224.596989,41.3418969 Z M265.828453,72.1318689 C265.828453,77.2634458 257.983483,77.4405826 257.983483,72.2499522 L257.983483,38.7468112 C257.983483,36.6821781 259.576234,35.1484688 261.522772,35.1484688 L277.212511,35.1484688 C292.194657,35.1484688 295.261617,55.203393 282.757156,60.2168867 L290.601906,69.7724947 C293.669081,74.3145852 287.534707,78.6790719 283.995637,74.19649 L275.089072,61.4558668 L265.828453,61.4558668 L265.828453,72.1318689 L265.828453,72.1318689 Z M265.828453,54.6724854 L277.212515,54.6724854 C284.880336,54.6724854 285.352226,42.285637 277.212515,42.285637 L265.828453,42.285637 L265.828453,54.6724854 L265.828453,54.6724854 Z M302.341168,38.6877815 C302.341168,36.7412437 303.874901,34.618036 306.352103,34.618036 L319.977688,34.618036 C327.645776,34.618036 334.546766,39.7496128 334.546766,49.5999381 C334.546766,58.9193438 327.645776,64.1099862 319.977688,64.1099862 L310.12712,64.1099862 L310.12712,71.8961574 C310.12712,74.4912352 308.47557,75.9658909 306.352103,75.9658909 C304.405785,75.9658909 302.341168,74.4912232 302.341168,71.8961574 L302.341168,38.6877815 Z M310.12712,42.0499574 L310.12712,56.7371304 L319.977688,56.7371304 C323.929339,56.7371304 327.055827,53.2568832 327.055827,49.5999501 C327.055827,45.471163 323.929343,42.0499574 319.977688,42.0499574 L310.12712,42.0499574 Z M345.283733,72.3089938 L345.283733,38.8058648 C345.283733,36.6821941 346.817443,35.1484568 349.47155,35.1484568 C351.536195,35.1484568 353.069904,36.6821662 353.069904,38.8058648 L353.069904,51.6645712 L372.298713,51.6645712 L372.298713,38.8058648 C372.298713,36.6821941 374.186209,35.1484568 376.309405,35.1484568 C378.37405,35.1484568 379.966801,36.6821662 379.966801,38.8058648 L379.966801,72.3089938 C379.966801,74.373136 378.37405,75.9659029 376.309405,75.9659029 C374.186209,75.9659029 372.298713,74.37314 372.298713,72.3089938 L372.298713,59.3912338 L353.069904,59.3912338 L353.069904,72.3090058 C353.069904,74.3731479 351.536195,75.9659149 349.47155,75.9659149 C346.817443,75.9658989 345.283733,74.3731599 345.283733,72.3089938 Z M396.189108,75.9658989 C394.124487,75.9658989 392.531736,74.373136 392.531736,72.3089898 L392.531736,38.8058608 C392.531736,36.6821901 394.124487,35.1484528 396.189108,35.1484528 L417.364478,35.1484528 C422.790772,35.1484528 422.672693,42.8165527 417.364478,42.8165527 L400.376972,42.8165527 L400.376972,51.6645672 L415.240791,51.6645672 C420.490452,51.6645672 420.490452,59.3912338 415.240791,59.3912338 L400.376972,59.3912338 L400.376972,68.2387694 L418.367256,68.2387694 C423.73456,68.2387694 424.147361,75.9659109 418.367256,75.9659109 L396.189108,75.9659109 L396.189108,75.9658989 Z M461.072681,39.0415524 C461.072681,33.7918803 468.799834,33.3790558 468.799834,39.0415524 L468.799834,60.3940235 C468.799834,82.4540643 433.232024,82.4540643 433.232024,60.3940235 L433.232024,39.0415524 C433.232024,33.7333135 440.959178,33.4971511 440.959178,39.0415524 L440.959178,60.3940235 C440.959178,72.0137617 461.072681,72.7218302 461.072681,60.3940235 L461.072681,39.0415524 Z M480.71668,43.9964912 C482.073265,32.553403 499.355516,30.488758 507.495469,36.7412437 C511.506185,39.9853244 507.25979,45.1169013 503.720481,42.5218474 C499.355516,39.7496328 489.446125,38.4521019 488.207671,44.5860055 C486.61492,54.2596689 512.273287,48.7152676 511.860439,64.4047514 C511.447587,79.3871524 489.741381,79.7409511 481.601427,73.0165993 C479.654865,71.4243232 479.713907,68.8287706 480.775726,67.2360196 C482.308996,65.7027971 484.019831,65.1718774 486.024947,66.8231951 C490.861755,70.1263294 503.307685,72.6037869 504.192375,64.2281293 C503.42576,55.4981622 478.88825,60.7478303 480.71668,43.9964912 Z" fill="#78C5E1"></path>
		<path d="M104.665263,66.1155018 C98.9146767,89.2188493 77.874338,105.655909 53.09353,105.655909 C28.200517,105.655909 7.34129783,88.2459456 1.82637144,65.0472535 C8.45778108,65.0472535 14.6571832,65.0775545 17.5352857,65.0775545 C18.8929756,65.0775545 19.1566416,65.1011073 19.2351975,65.0954924 C21.4007779,64.9888943 24.1161897,64.2741375 25.9226957,59.8812493 L32.8065776,41.8738103 L48.094718,78.6828511 C49.4692484,81.6170341 51.7638904,81.4091972 53.1327741,81.4091972 L53.2618356,81.4091972 C55.9323525,81.4091972 57.0936986,80.4733905 58.1091666,78.537827 L75.3777334,42.1498074 L81.2685708,58.5490916 L81.6276412,59.3431066 C82.8731181,62.075327 83.7690822,64.7740778 86.8513901,65.1267432 C87.4867769,65.1994368 94.8654311,65.0705389 104.812534,65.0705389 C104.812538,65.0705389 104.812597,65.1343414 104.665263,66.1155018 Z" fill="#78C5E1"></path>
		<path d="M106.352349,52.5083535 C106.352349,52.7832572 106.352349,53.4746687 106.346734,53.4746687 L106.335504,53.4746687 L90.4585198,53.4746687 L81.1956337,27.5994618 C80.3709386,25.6751279 79.1310406,22.7902853 75.5179847,22.7902853 C73.3075175,22.7902853 71.3102426,24.6158666 70.1769428,27.6286055 L53.3852423,66.523322 L37.2218972,27.8645405 C35.6397813,24.4310238 34.5457933,22.8162285 31.3815615,22.8162285 C29.2327976,22.8162285 27.6563005,23.6077573 25.9395402,27.6752362 L16.3458933,53.8588643 L0.406938239,53.8421794 C0.395708558,53.443833 0.390125643,53.0455864 0.390125643,52.64724 C0.390125643,23.5408621 23.9871561,0.0174790335 53.093526,0.0174790335 C82.199896,0.0174790335 106.352349,23.4019876 106.352349,52.5083535 Z" fill="#F46E5D"></path>
	</g>
</svg>

<svg width="512" height="106" xmlns="http://www.w3.org/2000/svg" preserveAspectRatio="xMidYMid"><path d="M159.24 50.072v21.824c0 2.595-2.123 4.07-4.247 4.07-1.887 0-3.539-1.475-3.539-4.07V38.688c0-3.067 2.596-4.07 3.54-4.07 1.71 0 2.713 1.003 3.716 2.123l12.976 17.519 13.449-18.168c1.946-2.418 6.724-1.474 6.724 2.596v33.208c0 2.595-1.652 4.07-3.54 4.07-2.123 0-3.774-1.475-3.774-4.07V50.072l-9.792 12.387c-2.123 2.595-4.777 2.595-6.724 0l-8.789-12.387zm66.006 26.484c-10.912.472-22.237-6.784-22.237-21.234 0-14.511 11.325-21.648 22.237-21.648 10.322.53 21.116 7.668 21.116 21.648 0 13.979-10.794 21.234-21.116 21.234zm-.649-35.214c-6.606 0-13.802 4.66-13.802 13.98 0 9.26 7.196 13.979 13.802 13.979 6.783 0 14.038-4.72 14.038-13.98 0-9.319-7.255-13.98-14.038-13.98zm41.231 30.79c0 5.131-7.845 5.309-7.845.118V38.747c0-2.065 1.593-3.599 3.54-3.599h15.69c14.982 0 18.049 20.055 5.544 25.069l7.845 9.555c3.067 4.543-3.067 8.907-6.606 4.424l-8.907-12.74h-9.26v10.676zm0-17.46h11.385c7.667 0 8.14-12.386 0-12.386h-11.385v12.386zm36.513-15.984c0-1.947 1.534-4.07 4.011-4.07h13.626c7.668 0 14.569 5.132 14.569 14.982 0 9.32-6.901 14.51-14.57 14.51h-9.85v7.786c0 2.595-1.651 4.07-3.775 4.07-1.946 0-4.01-1.475-4.01-4.07V38.688zm7.786 3.362v14.687h9.85c3.952 0 7.079-3.48 7.079-7.137 0-4.129-3.127-7.55-7.078-7.55h-9.85zm35.157 30.259V38.806c0-2.124 1.533-3.658 4.188-3.658 2.064 0 3.598 1.534 3.598 3.658v12.859h19.229v-12.86c0-2.123 1.887-3.657 4.01-3.657 2.065 0 3.658 1.534 3.658 3.658v33.503c0 2.064-1.593 3.657-3.658 3.657-2.123 0-4.01-1.593-4.01-3.657V59.391h-19.23V72.31c0 2.064-1.533 3.657-3.597 3.657-2.655 0-4.188-1.593-4.188-3.657zm50.905 3.657c-2.065 0-3.657-1.593-3.657-3.657V38.806c0-2.124 1.592-3.658 3.657-3.658h21.175c5.427 0 5.309 7.669 0 7.669h-16.987v8.848h14.864c5.25 0 5.25 7.726 0 7.726h-14.864v8.848h17.99c5.368 0 5.78 7.727 0 7.727H396.19zm64.884-36.924c0-5.25 7.727-5.663 7.727 0v21.352c0 22.06-35.568 22.06-35.568 0V39.042c0-5.309 7.727-5.545 7.727 0v21.352c0 11.62 20.114 12.328 20.114 0V39.042zm19.644 4.954c1.356-11.443 18.639-13.507 26.778-7.255 4.011 3.244-.235 8.376-3.775 5.78-4.364-2.771-14.274-4.069-15.512 2.065-1.593 9.674 24.065 4.13 23.652 19.819-.412 14.982-22.119 15.336-30.259 8.612-1.946-1.593-1.887-4.188-.825-5.781 1.533-1.533 3.244-2.064 5.249-.413 4.837 3.303 17.283 5.78 18.167-2.595-.766-8.73-25.304-3.48-23.475-20.232zm-376.052 22.12c-5.75 23.103-26.79 39.54-51.571 39.54-24.893 0-45.753-17.41-51.268-40.609 6.632 0 12.831.03 15.71.03 1.357 0 1.62.024 1.7.018 2.165-.106 4.88-.82 6.687-5.214l6.884-18.007 15.288 36.809c1.374 2.934 3.669 2.726 5.038 2.726h.129c2.67 0 3.832-.936 4.847-2.871L75.378 42.15l5.89 16.4.36.793c1.245 2.732 2.141 5.431 5.223 5.784.636.072 8.014-.056 17.962-.056 0 0 0 .063-.148 1.045z" fill="#78C5E1"/><path d="M106.352 52.508c0 .275 0 .967-.005.967H90.459l-9.263-25.876c-.825-1.924-2.065-4.809-5.678-4.809-2.21 0-4.208 1.826-5.341 4.839L53.385 66.523 37.222 27.865c-1.582-3.434-2.676-5.049-5.84-5.049-2.15 0-3.726.792-5.442 4.86l-9.594 26.183-15.94-.017a42.399 42.399 0 01-.016-1.195C.39 23.541 23.987.017 53.094.017c29.106 0 53.258 23.385 53.258 52.491z" fill="#F46E5D"/></svg>
